storage/app/icons/phosphoricons/fill/cardholder-fill.svg

<svg xmlns="http://www.w3.org/2000/svg" fill="currentColor" viewBox="0 0 256 256"><path d="M208 48H48a24 24 0 0 0-24 24v112a24 24 0 0 0 24 24h160a24 24 0 0 0 24-24V72a24 24 0 0 0-24-24m-56 72a24 24 0 0 1-48 0 8 8 0 0 0-8-8H40V96h176v16h-56a8 8 0 0 0-8 8M48 64h160a8 8 0 0 1 8 8v8H40v-8a8 8 0 0 1 8-8"/></svg>

<svg xmlns="http://www.w3.org/2000/svg" viewBox="0 0 256 256" fill="currentColor"><path d="M208,48H48A24,24,0,0,0,24,72V184a24,24,0,0,0,24,24H208a24,24,0,0,0,24-24V72A24,24,0,0,0,208,48Zm-56,72a24,24,0,0,1-48,0,8,8,0,0,0-8-8H40V96H216v16H160A8,8,0,0,0,152,120ZM48,64H208a8,8,0,0,1,8,8v8H40V72A8,8,0,0,1,48,64Z"/></svg>
